app/images/icon/burger-phone.svg

<svg width="24" height="24" viewBox="0 0 24 24" fill="none" xmlns="http://www.w3.org/2000/svg">
<path d="M23.309 17.9377L19.8403 14.4675C19.3744 14.004 18.7506 13.7486 18.084 13.7486C17.3903 13.7486 16.7353 14.0218 16.2401 14.5173L14.8899 15.8673C13.8406 15.2841 12.4461 14.482 10.9982 13.0341C9.55205 11.5874 8.74983 10.197 8.16366 9.14207L9.51521 7.79151C10.5201 6.78457 10.5406 5.16912 9.56118 4.19058L6.09309 0.72239C5.62854 0.25655 5.00474 0 4.33646 0C3.65825 0 3.01668 0.261117 2.52433 0.736389C2.22647 0.976259 0.731753 2.29574 0.174671 5.01692C-0.605304 8.82575 1.18677 12.4904 6.36026 17.666C12.1395 23.4434 17.0732 23.8925 18.4477 23.8925C18.7338 23.8925 18.9065 23.8748 18.9526 23.8695C21.6478 23.5535 22.6129 22.3566 23.3175 21.4826C24.2305 20.3498 24.2273 18.8594 23.309 17.9377ZM22.158 20.5478C21.4957 21.3693 20.8702 22.1451 18.7793 22.3902C18.7782 22.3903 18.6638 22.4031 18.4477 22.4031C17.218 22.4031 12.7877 21.9855 7.41337 16.6129C2.64247 11.84 0.96795 8.56692 1.63365 5.31557C2.11955 2.94208 3.40954 1.93326 3.45968 1.89493L3.50416 1.86207L3.54318 1.82295C3.75853 1.6078 4.04019 1.48926 4.33636 1.48926C4.60601 1.48926 4.85542 1.59033 5.03929 1.7748L8.50817 5.24378C8.9073 5.64251 8.88605 6.31347 8.46141 6.739L6.93293 8.26619L6.90782 8.2925C6.50949 8.73123 6.55635 9.32416 6.77577 9.71027C7.4089 10.8528 8.27615 12.4176 9.94491 14.0869C11.6081 15.7501 13.1707 16.6167 14.31 17.2486C14.4241 17.3126 14.6596 17.4201 14.9544 17.4201C15.3025 17.4201 15.6221 17.2727 15.8587 17.0042L17.2931 15.5701C17.5073 15.3559 17.7881 15.2378 18.0838 15.2378C18.3541 15.2378 18.6048 15.3392 18.7882 15.5217L22.2547 18.9896C22.6951 19.4316 22.5133 20.1072 22.158 20.5478Z" fill="#31352B"/>
<path d="M14.5399 3.64875C15.8194 3.79599 17.3259 4.571 18.3779 5.62311C19.4398 6.68495 20.2167 8.20678 20.357 9.50015C20.3984 9.8817 20.721 10.1645 21.0963 10.1645C21.1231 10.1645 21.1503 10.163 21.1775 10.1601C21.5864 10.1157 21.8819 9.74836 21.8375 9.33951C21.6601 7.7046 20.7379 5.87708 19.431 4.57011C18.1364 3.27534 16.3275 2.35548 14.7102 2.16932C14.3018 2.12196 13.9324 2.41545 13.8853 2.8239C13.8383 3.23235 14.1313 3.60169 14.5399 3.64875Z" fill="#31352B"/>
<path d="M13.8442 6.76809C14.5362 6.84781 15.4939 7.36111 16.1213 7.98849C16.754 8.62132 17.2683 9.58815 17.344 10.2876C17.3854 10.6693 17.7081 10.952 18.0834 10.952C18.1102 10.952 18.1373 10.9505 18.1645 10.9476C18.5734 10.9033 18.8689 10.5359 18.8246 10.1271C18.6951 8.93288 17.9023 7.66353 17.1742 6.93538C16.4526 6.21369 15.1956 5.42468 14.0145 5.28856C13.6055 5.241 13.2366 5.53459 13.1895 5.94304C13.1425 6.35159 13.4356 6.72103 13.8442 6.76809Z" fill="#31352B"/>
</svg>

<svg width="24" height="24" fill="none" xmlns="http://www.w3.org/2000/svg"><path d="M23.309 17.938l-3.469-3.47a2.472 2.472 0 00-1.756-.72c-.694 0-1.349.274-1.844.77l-1.35 1.35c-1.05-.584-2.444-1.386-3.892-2.834-1.446-1.447-2.248-2.837-2.834-3.892l1.351-1.35c1.005-1.007 1.026-2.623.046-3.601L6.093.722A2.461 2.461 0 004.336 0c-.678 0-1.32.261-1.812.736-.298.24-1.792 1.56-2.35 4.28-.78 3.81 1.013 7.474 6.186 12.65 5.78 5.777 10.713 6.226 12.088 6.226.286 0 .459-.017.505-.023 2.695-.316 3.66-1.512 4.364-2.386.913-1.133.91-2.624-.008-3.545zm-1.151 2.61c-.662.821-1.288 1.597-3.379 1.842 0 0-.115.013-.331.013-1.23 0-5.66-.418-11.035-5.79C2.643 11.84.968 8.567 1.633 5.316 2.12 2.942 3.41 1.933 3.46 1.895l.044-.033.04-.04c.215-.214.496-.333.792-.333.27 0 .52.101.703.286l3.47 3.469c.398.399.377 1.07-.048 1.495L6.933 8.266l-.025.027c-.399.438-.352 1.031-.132 1.417.633 1.143 1.5 2.708 3.169 4.377 1.663 1.663 3.226 2.53 4.365 3.162.114.064.35.171.644.171.348 0 .668-.147.905-.416l1.434-1.434c.214-.214.495-.332.79-.332a.99.99 0 01.705.284l3.467 3.468c.44.442.258 1.117-.097 1.558zM14.54 3.649c1.28.147 2.786.922 3.838 1.974 1.062 1.062 1.839 2.584 1.979 3.877a.745.745 0 101.48-.16c-.177-1.635-1.1-3.463-2.406-4.77-1.295-1.295-3.104-2.215-4.72-2.4a.745.745 0 10-.171 1.479zm-.696 3.119c.692.08 1.65.593 2.277 1.22.633.633 1.147 1.6 1.223 2.3a.745.745 0 101.48-.16c-.129-1.195-.922-2.464-1.65-3.193-.721-.721-1.978-1.51-3.16-1.646a.744.744 0 10-.17 1.48z" fill="#31352B"/></svg>
